client/public/assets/icons/utility/dialing.svg

<?xml version="1.0"?><svg xmlns="http://www.w3.org/2000/svg" width="52" height="52" viewBox="0 0 52 52"><g fill="#fff"><path d="m48.5 37.9l-6.1-4.9c-1.4-1.1-3.4-1.2-4.8-0.1l-5.2 3.8c-0.6 0.5-1.5 0.4-2.1-0.2l-7.8-7-7-7.8c-0.6-0.6-0.6-1.4-0.2-2.1l3.8-5.2c1.1-1.4 1-3.4-0.1-4.8l-4.9-6.1c-1.5-1.8-4.2-2-5.9-0.3l-5.2 5.2c-0.8 0.8-1.2 1.9-1.2 3 0.5 10.2 5.1 19.9 11.9 26.7s16.5 11.4 26.7 11.9c1.1 0.1 2.2-0.4 3-1.2l5.2-5.2c1.9-1.5 1.8-4.3-0.1-5.7z"></path><circle cx="33.4" cy="18.4" r="4.5"></circle><path d="m42 24.5c1.2-1.7 1.9-3.8 1.9-6-0.1-5.8-4.8-10.5-10.6-10.5-2.2 0-4.3 0.7-6 1.9l-4.3-4.4c2.8-2.2 6.4-3.5 10.3-3.5 9.1 0 16.6 7.4 16.6 16.6 0 3.9-1.3 7.5-3.6 10.3l-4.3-4.4z"></path></g></svg>

<?xml version="1.0" encoding="utf-8"?>
<!-- Generator: Adobe Illustrator 21.1.0, SVG Export Plug-In . SVG Version: 6.00 Build 0)  -->
<svg version="1.1" id="Layer_1" xmlns="http://www.w3.org/2000/svg" xmlns:xlink="http://www.w3.org/1999/xlink" x="0px" y="0px"
	 width="52px" height="52px" viewBox="0 0 52 52" enable-background="new 0 0 52 52" xml:space="preserve">
<g>
	<path fill="#FFFFFF" d="M48.5,37.9L42.4,33c-1.4-1.1-3.4-1.2-4.8-0.1l-5.2,3.8c-0.6,0.5-1.5,0.4-2.1-0.2l-7.8-7l-7-7.8
		c-0.6-0.6-0.6-1.4-0.2-2.1l3.8-5.2c1.1-1.4,1-3.4-0.1-4.8l-4.9-6.1c-1.5-1.8-4.2-2-5.9-0.3L3,8.4c-0.8,0.8-1.2,1.9-1.2,3
		c0.5,10.2,5.1,19.9,11.9,26.7S30.2,49.5,40.4,50c1.1,0.1,2.2-0.4,3-1.2l5.2-5.2C50.5,42.1,50.4,39.3,48.5,37.9z"/>
	<circle fill="#FFFFFF" cx="33.4" cy="18.4" r="4.5"/>
	<path fill="#FFFFFF" d="M42,24.5c1.2-1.7,1.9-3.8,1.9-6C43.8,12.7,39.1,8,33.3,8c-2.2,0-4.3,0.7-6,1.9L23,5.5
		C25.8,3.3,29.4,2,33.3,2c9.1,0,16.6,7.4,16.6,16.6c0,3.9-1.3,7.5-3.6,10.3L42,24.5z"/>
</g>
</svg>
